X: 19783
T: Jer Mac's
R: polka
M: 2/4
K: Gmajor
B/c/|:dg Bg|BG G(3F/G/B/|A/B/A/F/ D/F/A/F/|GE ED|
dg Bg|BG G(3F/G/B/|A/B/A/F/ D/F/A/F/|1 G2 GB/c/:|2 G2 GA]
|:BG B/F/G/B/|AF A/G/F/E/|A/c/A/F/ D/F/A/F/|GE ED|
BG B/F/G/B/|AF A/G/F/E/|A/c/A/F/ D/F/A/F/|1 G2 GA:|2 G2 GB/c/||

